icons/filled/arrow-big-down-lines.svg

<svg xmlns="http://www.w3.org/2000/svg" width="24" height="24" viewBox="0 0 24 24" fill="currentColor"><path d="M9 8l-.117 .007a1 1 0 0 0 -.883 .993v1.999l-2.586 .001a2 2 0 0 0 -1.414 3.414l6.586 6.586a2 2 0 0 0 2.828 0l6.586 -6.586a2 2 0 0 0 .434 -2.18l-.068 -.145a2 2 0 0 0 -1.78 -1.089l-2.586 -.001v-1.999a1 1 0 0 0 -1 -1h-6z"/><path d="M15 2a1 1 0 0 1 .117 1.993l-.117 .007h-6a1 1 0 0 1 -.117 -1.993l.117 -.007h6z"/><path d="M15 5a1 1 0 0 1 .117 1.993l-.117 .007h-6a1 1 0 0 1 -.117 -1.993l.117 -.007h6z"/></svg>

<svg xmlns="http://www.w3.org/2000/svg" width="24" height="24" fill="currentColor"><path d="m9 8-.117.007A1 1 0 0 0 8 9v1.999L5.414 11A2 2 0 0 0 4 14.414L10.586 21a2 2 0 0 0 2.828 0L20 14.414a2 2 0 0 0 .434-2.18l-.068-.145A2 2 0 0 0 18.586 11L16 10.999V9a1 1 0 0 0-1-1zM15 2a1 1 0 0 1 .117 1.993L15 4H9a1 1 0 0 1-.117-1.993L9 2zM15 5a1 1 0 0 1 .117 1.993L15 7H9a1 1 0 0 1-.117-1.993L9 5z"/></svg>
